assets/images/sections/project-works/person-worked.svg

<svg width="39" height="35" viewBox="0 0 39 35" version="1.1" xmlns="http://www.w3.org/2000/svg" xmlns:xlink="http://www.w3.org/1999/xlink">
<title>user</title>
<desc>Created using Figma</desc>
<g id="Canvas" transform="translate(-744 3285)">
<g id="user">
<g id="Shape">
<use xlink:href="#path0_fill" transform="translate(756.377 -3284.96)" fill="#F47C79"/>
</g>
<g id="Shape">
<use xlink:href="#path1_fill" transform="translate(744 -3279.89)" fill="#F47C79"/>
</g>
<g id="Shape">
<use xlink:href="#path2_fill" transform="translate(767.201 -3266.7)" fill="#F47C79"/>
</g>
</g>
</g>
<defs>
<path id="path0_fill" d="M 1.19388 21.9713C 0.437755 22.5975 0 23.5367 0 24.5321L 0 28.0883C 0 28.5298 0.350204 28.883 0.787959 28.883C 1.22571 28.883 1.57592 28.5298 1.57592 28.0883L 1.57592 24.5321C 1.57592 24.0103 1.79878 23.5287 2.19673 23.1995C 5.32469 20.6067 8.72327 18.8807 9.36796 18.5596C 9.71816 18.3911 9.94102 18.0298 9.94102 17.6365L 9.94102 12.6273C 9.94102 12.3624 9.80571 12.1135 9.59082 11.969C 9.16102 11.68 8.90633 11.1984 8.90633 10.6846L 8.90633 5.49083C 8.90633 3.34748 10.6335 1.6055 12.7586 1.6055L 13.8649 1.6055C 15.99 1.6055 17.7171 3.34748 17.7171 5.49083L 17.7171 10.6846C 17.7171 11.1984 17.4624 11.68 17.0327 11.969C 16.8098 12.1135 16.6824 12.3624 16.6824 12.6273L 16.6824 17.6284C 16.6824 18.0218 16.9053 18.383 17.2555 18.5516C 17.9082 18.8727 21.2988 20.5986 24.4267 23.1915C 24.8167 23.5206 25.0476 24.0023 25.0476 24.5241L 25.0476 28.0803C 25.0476 28.5218 25.3978 28.875 25.8355 28.875C 26.2733 28.875 26.6235 28.5218 26.6235 28.0803L 26.6235 24.5241C 26.6235 23.5287 26.1857 22.5975 25.4296 21.9633C 22.5165 19.547 19.3806 17.8532 18.2584 17.2752L 18.2584 13.0046C 18.911 12.4106 19.2931 11.5677 19.2931 10.6686L 19.2931 5.47477C 19.2931 2.45642 16.8576 0 13.8649 0L 12.7586 0C 9.76592 0 7.33041 2.45642 7.33041 5.47477L 7.33041 10.6686C 7.33041 11.5677 7.71245 12.4106 8.3651 13.0046L 8.3651 17.2752C 7.24286 17.8532 4.1149 19.555 1.19388 21.9713Z"/>
<path id="path1_fill" d="M 11.4373 0L 10.538 0C 8.02286 0 5.96939 2.06307 5.96939 4.6078L 5.96939 8.8383C 5.96939 9.59289 6.2798 10.2993 6.81306 10.805L 6.81306 14.1284C 5.83408 14.6342 3.34286 15.9989 1.02673 17.9174C 0.374082 18.4553 0 19.258 0 20.117L 0 23.0149C 0 23.4564 0.350204 23.8096 0.787959 23.8096C 1.22571 23.8096 1.57592 23.4564 1.57592 23.0149L 1.57592 20.117C 1.57592 19.7397 1.74306 19.3865 2.02959 19.1456C 4.56857 17.0424 7.31449 15.6456 7.84775 15.3807C 8.18204 15.2202 8.39694 14.867 8.39694 14.4977L 8.39694 10.4197C 8.39694 10.1548 8.26163 9.90596 8.04673 9.76147C 7.73633 9.55275 7.55327 9.20757 7.55327 8.8383L 7.55327 4.6078C 7.55327 2.9461 8.89837 1.58945 10.5459 1.58945L 11.4453 1.58945C 13.0929 1.58945 14.438 2.9461 14.438 4.6078L 14.438 8.8383C 14.438 9.20757 14.2549 9.55275 13.9445 9.76147C 13.7216 9.90596 13.5943 10.1548 13.5943 10.4197L 13.5943 13.7672C 13.5943 14.2087 13.9445 14.5619 14.3822 14.5619C 14.82 14.5619 15.1702 14.2087 15.1702 13.7672L 15.1702 10.805C 15.7035 10.2993 16.0139 9.59289 16.0139 8.8383L 16.0139 4.6078C 16.0059 2.06307 13.9604 0 11.4373 0Z"/>
<path id="path2_fill" fill-rule="evenodd" d="M 3.40656 0.802734C 3.40656 0.361328 3.75671 0.00805664 4.19452 0.00805664C 4.62427 0.00805664 4.98242 0.369385 4.99835 0.810791C 4.99835 1.38867 4.79938 1.92651 4.46509 2.35205L 4.97449 14.3452C 4.98242 14.5859 4.88696 14.8108 4.71185 14.9714L 3.07227 16.4565C 2.92102 16.5928 2.73798 16.6572 2.54694 16.6572C 2.36389 16.6572 2.17285 16.585 2.02161 16.4485L 0.358154 14.9392C 0.183044 14.7786 0.0875244 14.554 0.09552 14.313L 0.628784 2.46436C 0.23877 2.01489 0 1.43701 0 0.794678C 0 0.353271 0.35022 0 0.787964 0C 1.22571 0 1.57593 0.353271 1.57593 0.794678C 1.57593 1.06763 1.68732 1.30859 1.87042 1.47705C 1.91022 1.50122 1.95001 1.5332 1.98181 1.56543C 2.12512 1.66968 2.30023 1.72583 2.49121 1.72583C 2.99268 1.72583 3.40656 1.31641 3.40656 0.802734ZM 1.67938 14.0242L 2.539 14.8027L 3.3667 14.0481L 2.90509 3.29126C 2.76184 3.31543 2.61859 3.3313 2.47528 3.3313C 2.37183 3.3313 2.26038 3.32349 2.15692 3.30737L 1.67938 14.0242Z"/>
</defs>
</svg>

<svg xmlns="http://www.w3.org/2000/svg" xmlns:xlink="http://www.w3.org/1999/xlink" width="39" height="35"><g fill="#F47C79" transform="translate(-744 3285)"><use xlink:href="#A" x="756.377" y="-3284.96"/><use xlink:href="#B" x="744" y="-3279.89"/><use xlink:href="#C" x="767.201" y="-3266.7"/></g><defs><path id="A" d="M1.194 21.97A3.32 3.32 0 0 0 0 24.532v3.556c0 .442.35.795.788.795s.788-.353.788-.795v-3.556c0-.522.223-1.003.62-1.333 3.128-2.593 6.527-4.32 7.17-4.64.35-.168.573-.53.573-.923v-5.01a.8.8 0 0 0-.35-.658c-.43-.29-.684-.77-.684-1.284V5.49c0-2.143 1.727-3.885 3.852-3.885h1.106c2.125 0 3.852 1.742 3.852 3.885v5.194c0 .514-.255.995-.684 1.284a.78.78 0 0 0-.35.658v5c0 .393.223.755.573.923.653.32 4.043 2.047 7.17 4.64a1.74 1.74 0 0 1 .621 1.333v3.556c0 .44.35.795.788.795s.788-.353.788-.795v-3.556c0-.995-.438-1.927-1.194-2.56-2.913-2.416-6.05-4.1-7.17-4.688v-4.27c.653-.594 1.035-1.437 1.035-2.336V5.475C19.293 2.456 16.858 0 13.865 0H12.76C9.766 0 7.33 2.456 7.33 5.475v5.194c0 .9.382 1.742 1.035 2.336v4.27c-1.122.578-4.25 2.28-7.17 4.696z"/><path id="B" d="M11.437 0h-.9C8.023 0 5.97 2.063 5.97 4.608v4.23c0 .755.3 1.46.844 1.967v3.323c-.98.506-3.47 1.87-5.786 3.79-.653.538-1.027 1.34-1.027 2.2v2.898c0 .44.35.795.788.795s.788-.353.788-.795v-2.898c0-.377.167-.73.454-.97 2.54-2.103 5.285-3.5 5.818-3.765a.99.99 0 0 0 .549-.883V10.42a.8.8 0 0 0-.35-.658 1.11 1.11 0 0 1-.493-.923v-4.23c0-1.662 1.345-3.018 2.993-3.018h.9c1.648 0 2.993 1.357 2.993 3.018v4.23a1.11 1.11 0 0 1-.494.923.78.78 0 0 0-.35.658v3.348c0 .44.35.795.788.795s.788-.353.788-.795v-2.962c.533-.506.844-1.212.844-1.967v-4.23C16.006 2.063 13.96 0 11.437 0z"/><path id="C" d="M3.407.803c0-.44.35-.795.788-.795.43 0 .788.36.804.803a2.49 2.49 0 0 1-.533 1.541l.51 11.993c.008.24-.088.466-.263.626l-1.64 1.485a.77.77 0 0 1-.525.201c-.183 0-.374-.072-.525-.21L.358 14.94c-.175-.16-.27-.385-.263-.626L.63 2.464A2.53 2.53 0 0 1 0 .795C0 .353.35 0 .788 0s.788.353.788.795c0 .273.11.514.294.682a.6.6 0 0 1 .111.088c.143.104.318.16.51.16a.92.92 0 0 0 .915-.923zM1.68 14.024l.86.778.828-.755L2.905 3.29c-.143.024-.286.04-.43.04-.103 0-.215-.008-.318-.024L1.68 14.024z" fill-rule="evenodd"/></defs></svg>
